X:1
T:B minor Samuel Babcock, 1779
T:Charles Wesley, 1745    76. 76. 76. 76.
T:Springfield
T:Transcribed from The Columbian Harmony, 1793.
%%score [ 1 2 3 4 ]
L:1/8
Q:1/4=120
M:3/2
K:D
V:1 treble nm="Treble" snm="Tr."
V:2 treble nm="Counter" snm="C."
V:3 treble-8 nm="Tenor" snm="T."
V:4 bass nm="Bass" snm="B."
V:1
 B8 A4 | (B4 c4) (3(d2 e2 f2) | (e6 d2) c4 | B8 B4 | (B3 c d4) c4 | (B3 c d4) c4 | c8 z4 | d8 c4 | %8
w: 1.~Je- sus|drinks * the * *|bit- * ter|cup; The|wine- * * press|treads * * a-|lone,|Tears the|
 B8 c4 | (d3 e f2 e2) (d2 B2) | c8 c4 | (d4 e4) f4 | (B4 e2 d2) c4 | B8 z4 |:[M:6/4] d4 c2 B4 c2 | %15
w: graves and|moun- * * * tains *|up By|his~ _ ex-|pi- * * ring|groan:|Lo, the powers of|
 (d2 B2) B2 (c2 B2 A2 | B6) (d2 e2) f2 | (e2 d2) c2 d4 ec | (d4 c2 B4) B2 | F4 B2 A4 A2 | %20
w: heaven * he shakes;~ _ _|_ Na- * ture|in * con- vul- sions *|lies; * * The|earth's pro- foun- dest|
 A4 Bc d4 e2 | f4 f2 (e2 d2) c2 | B6- B6 |] %23
w: cen- ter * quakes, The|great Je- ho- * vah|dies! *|
V:2
 F8 F4 | F8 A4 | G8 F4 | F8 F4 | F8 (A3 G) | F8 E4 | F8 z4 | F8 F4 | F8 (F3 G) | (B3 G F4) F4 | %10
w: 2.~O my|God, he|dies for|me, I|feel the *|mor- tal|smart!|See him|han- ging *|on~ _ _ the|
 F8 F4 | (F2 G2 A2 G2) F4 | G8 F4 | F8 z4 |:[M:6/4] F4 F2 F4 G2 | F4 D2 (E2 F2 F2 | %16
w: tree, A|sight~ _ _ _ that|breaks my|heart!|O that all to|thee might turn!~ _ _|
 F6) (F2 G2) A2 | G4 F2 F4 E2 | F6- F4 F2 | F4 F2 F4 F2 | F4 E2 A4 AG | F4 F2 G4 F2 | F6- F6 |] %23
w: _ Sin- * ners,|ye may love him|too,~ _ And|look on him ye|pierced, and mourn For *|one who bled for|you. *|
V:3
 B8 c4 | (d4 c4) (3(B2 c2 d2) | (c4 B4) ^A4 | B8 F4 | (B3 A B4) c4 | (d2 c2 B2 A2) G4 | F8 z4 | %7
w: 3.~Weep o'er|your~ _ de- * *|sire * and|hope With|tears~ _ _ of|hum- * * * blest|love;|
 B8 c4 | d8 e4 | (f3 e d4) (B2 d2) | c8 A4 | (B4 c4) d4 | (B4 c2 B2) A4 | B8 z4 |: %14
w: Sing, for|Je- sus|is~ _ _ gone *|up, And|reigns~ _ en-|throned * * a-|bove!|
[M:6/4] B4 c2 d4 e2 | (f2 d2) f2 (e2 d2 c2 | d6) (d2 c2) B2 | (A2 B2) c2 (B2 A2) G2 | F6- F4 F2 | %19
w: Lives our head, to|die * no more:~ _ _|_ Power * is|all * to Je- * sus|given,~ _ And|
 B4 B2 c4 c2 | (d2 c2) B2 A4 A2 | B4 d2 (c2 B2) A2 | B6- B6 |] %23
w: wor- shipped as he|was * be- fore, Th'~im-|mor- tal King * of|heaven. *|
V:4
 B,,8 F,4 | (B,4 F,4) D,4 | E,8 F,4 | B,,8 B,,4 | D,8 F,4 | B,,8 C,4 | F,8 z4 | B,,8 (F,3 E,) | %8
w: 4.~Lord, we|bless * thee|for thy|grace, And|truth which|ne- ver|fail,|Has- tening *|
 D,8 C,4 | B,,8 (D,3 E,) | F,8 F,4 | (D,4 C,4) B,,4 | E,8 F,4 | B,,8 z4 |: %14
w: to be-|hold thy~ _|face With-|out~ _ a|dim- ming|veil:|
[M:6/4] B,,4 F,E, D,4 C,2 | B,,4 D,2 (C,2 D,E, F,2 | B,,6) (B,,2 C,2) D,2 | E,4 F,E, D,4 C,2 | %18
w: We shall * see our|hea- venly King,~ _ _ _|_ All~ _ thy|glo- rious * love pro-|
 B,,6- B,,4 B,,2 | B,,4 B,,2 F,4 F,2 | F,4 F,E, D,4 C,2 | %21
w: claim,~ _ And|help the an- gel|choirs to * sing Our|
"^______________________________________\nEdited by B. C. Johnston, 2016\n  1. Measure 10, \nCounter\n:  first  note  changed  from  A  to  B.\n  2. Measure 16, Counter:  last  note  changed  from  G  to  F." B,,4 B,,2 E,4 F,2 | %22
w: dear tri- um- phant|
 B,,6- B,,6 |] %23
w: Lamb. *|

